assets/Bitbucket Icon.svg

<svg width="48" height="48" viewBox="0 0 48 48" fill="none" xmlns="http://www.w3.org/2000/svg">
<g opacity="0.2">
<path fill-rule="evenodd" clip-rule="evenodd" d="M0 24C0 10.7452 10.7452 0 24 0C37.2548 0 48 10.7452 48 24C48 37.2548 37.2548 48 24 48C10.7452 48 0 37.2548 0 24ZM13.125 13.6975C12.9034 13.6946 12.6919 13.7899 12.5473 13.9577C12.4026 14.1256 12.3395 14.3488 12.375 14.5675L15.5588 33.895C15.6406 34.3832 16.0612 34.7421 16.5562 34.7463H31.83C32.2015 34.751 32.5206 34.483 32.58 34.1162L35.7637 14.5712C35.7992 14.3525 35.7362 14.1293 35.5915 13.9615C35.4468 13.7937 35.2353 13.6984 35.0137 13.7013L13.125 13.6975Z" fill="#7B7989"/>
<path fill-rule="evenodd" clip-rule="evenodd" d="M26.5312 27.6663H21.6562L20.3363 20.77H27.7125L26.5312 27.6663Z" fill="#7B7989"/>
</g>
</svg>

<svg width="48" height="48" fill="none" xmlns="http://www.w3.org/2000/svg"><g opacity=".2" fill-rule="evenodd" clip-rule="evenodd" fill="#7B7989"><path d="M0 24C0 10.745 10.745 0 24 0s24 10.745 24 24-10.745 24-24 24S0 37.255 0 24Zm13.125-10.303a.75.75 0 0 0-.75.87l3.184 19.328c.082.488.502.847.997.851H31.83a.75.75 0 0 0 .75-.63l3.184-19.545a.75.75 0 0 0-.75-.87l-21.889-.004Z"/><path d="M26.531 27.666h-4.875l-1.32-6.896h7.377l-1.182 6.896Z"/></g></svg>
